X:2
T:茉莉花第二声部
C:江苏民歌/李春华编曲
M:4/4
L:1/4
K:G
E/z/C/E/E/z/C/E/|G/z/E/z/C/z/z|
E/z/C/E/E/z/C/E/|C/z/E/z/G/z/z|
D/z/E/z/D/z/C/E/|E/z/E/z/G/z/z|
C/z/D/E/CA,/G,/|C/z/C/B,/C/A,/G,/E,/|
z2D/D/D/E/|z2G/A/G/E/|
DE/G/D/E/C/A,/|G,2A,C|
D3/2C/C/D/C/A,/|G,A,CD|
E3/2G/A,3/2C/|D3/2E/G/A/G/E/|
CC/D/A,/C/C/A,/|D3/2E/A,/C/D/E/|
EEEC/E/|EED/E/G/A/|
C3/2B,/E3/2D/|CC/D/C/A,/G,/E,/|
C/A,/A,/C/A,3/2C/|ED/C/E,/G,/A,/C/|
DE/G/D/E/C/A,/|G,2A,C|
D3/2E/C/D/C/A,/|G,4|
